X:158
T:Brasselets THO4.158, Le
M:2/4
L:1/8
Z:vmp. Peter Dunk 2010/11.from a transcription by Fynn Titford-Mock 2007
B:Thompson's Compleat Collection of 200 Favourite Country Dances Volume IV.
Q:1/2=70
K:A
!wedge!a!wedge!a!wedge!e!wedge!e|!wedge!f!wedge!f e2|\
dBcA|G/A/B/G/ A[AA,]|!wedge!A!wedge!A!wedge!E!wedge!E|\
!wedge!F!wedge!F E2|D"G.Fl.""_Vio."[dB,][cC]A|G/A/B/G/ A2:|
|:Ac B/c/d/B/|cfeG|AE Ff/e/|dBGE|\
FD "G.Fl.""_Vio."[BB,]B/A/|GEdB|cfeA|G/A/B/G/ A2:|
